!!!SOCIAL_FUNCTION:	klokali songs
!!!PDT:	1939
!!!OTL: No_50_Song_With_Impersonation_of_the_Wild_White_Geese.krn
!!!LANG: Non-Tone
!!!LING_GROUP: Wakashan
!!!REG: Pacific Northwest
**kern
*staff1
=1-
*clefF4
*k[f#c#]
*M2/4
4r
8r
8c#\
=2!|:
2d\
=3||
*M3/4
4e\
8r
8d\
4d\
=4||
*M2/4
[2c#\
=5
8c#\L]
8B\J
8B\
8r
=6
2d\
=7||
*M3/4
4e\
8r
8d\
4d\
=8||
[2c#\
=9
8c#\L]
8B\J
8B\
8r
=10||
*M3/4
4c#\
8r
8c#\
4c#\
=11||
*M2/4
[2B\
=12
8B\L]
8A#\J
8A#\
8r
=13||
*M3/4
4B\
8r
8B\
8B\L
8A#\J
=14||
*M2/4
4B\
4r
=15
8B\L
8B\J
8B\
8r
==:|!
*-
